dist/img/sprites/phone.svg

<svg width="19" height="20" viewBox="0 0 19 20" fill="none" xmlns="http://www.w3.org/2000/svg">
<path d="M7.14104 2.68737C6.85419 1.97024 6.15966 1.5 5.3873 1.5H2.78943C1.80115 1.5 1 2.30098 1 3.28928C1 11.6898 7.81001 18.5 16.2103 18.5C17.1986 18.5 17.9995 17.6987 17.9995 16.7105L18 14.1121C18 13.3396 17.5299 12.6453 16.8128 12.3584L14.3228 11.3627C13.6787 11.1051 12.9453 11.2211 12.4123 11.6652L11.7697 12.2012C11.0192 12.8266 9.91493 12.7769 9.22418 12.0861L7.4147 10.2749C6.72392 9.58407 6.67287 8.48067 7.29828 7.7302L7.83409 7.08762C8.27825 6.55462 8.39527 5.82098 8.13763 5.17681L7.14104 2.68737Z" stroke="#252525" stroke-width="1.8" stroke-linecap="round" stroke-linejoin="round"/>
</svg>

<svg width="19" height="20" viewBox="0 0 19 20" fill="none" xmlns="http://www.w3.org/2000/svg"><path d="M7.141 2.687A1.889 1.889 0 005.387 1.5H2.79A1.79 1.79 0 001 3.29c0 8.4 6.81 15.21 15.21 15.21A1.79 1.79 0 0018 16.71v-2.598a1.89 1.89 0 00-1.187-1.754l-2.49-.995a1.889 1.889 0 00-1.91.302l-.643.536a1.89 1.89 0 01-2.546-.115l-1.81-1.811a1.889 1.889 0 01-.116-2.545l.536-.642a1.89 1.89 0 00.304-1.911l-.997-2.49z" stroke="#252525" stroke-width="1.8" stroke-linecap="round" stroke-linejoin="round"/></svg>
